svg/recycle.svg

<?xml version="1.0" encoding="UTF-8"?>
<svg xmlns="http://www.w3.org/2000/svg" xmlns:xlink="http://www.w3.org/1999/xlink" width="32" height="32" viewBox="0 0 32 32">
<path fill-rule="nonzero" fill="rgb(0%, 0%, 0%)" fill-opacity="1" d="M 16 0 C 14.644531 0 13.40625 0.847656 12.5 2.378906 L 9.300781 7.78125 C 9.167969 7.980469 9.160156 8.234375 9.277344 8.445312 C 9.394531 8.652344 9.617188 8.777344 9.855469 8.773438 C 10.09375 8.765625 10.308594 8.628906 10.417969 8.417969 L 13.601562 3.019531 C 14.265625 1.890625 15.113281 1.28125 16 1.28125 C 16.886719 1.28125 17.734375 1.890625 18.398438 3.019531 L 22.078125 9.238281 L 19.480469 10.820312 C 19.289062 10.929688 19.171875 11.136719 19.179688 11.359375 C 19.179688 11.585938 19.289062 11.785156 19.480469 11.898438 L 25.878906 15.738281 C 26.078125 15.863281 26.332031 15.875 26.539062 15.761719 C 26.738281 15.648438 26.859375 15.429688 26.859375 15.199219 L 26.859375 7.519531 C 26.859375 7.289062 26.738281 7.070312 26.539062 6.960938 C 26.335938 6.84375 26.082031 6.84375 25.878906 6.960938 L 23.179688 8.578125 L 19.5 2.378906 C 18.59375 0.847656 17.355469 0 16 0 M 8.21875 10.199219 C 8.105469 10.199219 7.996094 10.226562 7.898438 10.28125 L 1.5 14.140625 C 1.304688 14.25 1.183594 14.457031 1.179688 14.679688 C 1.183594 14.902344 1.304688 15.109375 1.5 15.21875 L 4.019531 16.71875 L 0.78125 22.199219 C -0.121094 23.722656 -0.238281 25.1875 0.417969 26.339844 C 1.089844 27.511719 2.453125 28.160156 4.28125 28.160156 L 11.519531 28.160156 C 11.78125 28.160156 12.015625 28.003906 12.113281 27.765625 C 12.214844 27.523438 12.15625 27.25 11.972656 27.066406 C 11.851562 26.945312 11.691406 26.878906 11.519531 26.878906 L 4.28125 26.878906 C 2.933594 26.878906 1.953125 26.453125 1.519531 25.699219 C 1.101562 24.964844 1.226562 23.949219 1.878906 22.839844 L 5.097656 17.378906 L 7.898438 19.058594 C 8.089844 19.183594 8.335938 19.195312 8.539062 19.082031 C 8.738281 18.964844 8.859375 18.75 8.859375 18.519531 L 8.859375 10.839844 C 8.851562 10.488281 8.570312 10.203125 8.21875 10.199219 M 27.800781 17.28125 C 27.714844 17.289062 27.632812 17.316406 27.558594 17.359375 C 27.410156 17.441406 27.304688 17.585938 27.261719 17.75 C 27.21875 17.914062 27.246094 18.089844 27.335938 18.238281 L 30.121094 22.839844 C 30.773438 23.949219 30.902344 24.964844 30.480469 25.699219 C 30.046875 26.457031 29.066406 26.878906 27.71875 26.878906 L 21.761719 26.878906 L 21.761719 23.679688 C 21.761719 23.449219 21.640625 23.234375 21.441406 23.121094 C 21.238281 23.011719 20.996094 23.019531 20.800781 23.140625 L 14.398438 26.980469 C 14.203125 27.089844 14.082031 27.296875 14.078125 27.519531 C 14.078125 27.746094 14.207031 27.945312 14.398438 28.058594 L 20.800781 31.898438 C 20.941406 31.992188 21.117188 32.023438 21.28125 31.980469 C 21.332031 31.964844 21.390625 31.949219 21.441406 31.921875 C 21.640625 31.804688 21.761719 31.589844 21.757812 31.359375 L 21.757812 28.160156 L 27.71875 28.160156 C 29.546875 28.160156 30.929688 27.511719 31.601562 26.339844 C 32.257812 25.1875 32.121094 23.707031 31.21875 22.179688 L 28.441406 17.582031 C 28.308594 17.359375 28.054688 17.242188 27.800781 17.28125 "/>
</svg>

<svg role="img" viewBox="0 0 32 32" height="32" width="32" xmlns="http://www.w3.org/2000/svg"><path d="M16 0c-1.355 0-2.594.848-3.5 2.379L9.3 7.78a.635.635 0 0 0-.023.664c.118.207.34.332.578.328a.659.659 0 0 0 .563-.355l3.184-5.398C14.266 1.89 15.113 1.28 16 1.28c.887 0 1.734.61 2.398 1.739l3.68 6.218-2.598 1.582a.597.597 0 0 0-.3.54c0 .226.11.425.3.538l6.399 3.84c.2.125.453.137.66.024.2-.114.32-.332.32-.563V7.52c0-.23-.12-.449-.32-.558a.664.664 0 0 0-.66 0l-2.7 1.617-3.679-6.2C18.594.849 17.355 0 16 0M8.219 10.2a.652.652 0 0 0-.32.081L1.5 14.141a.631.631 0 0 0-.32.539c.004.222.125.43.32.539l2.52 1.5-3.239 5.48c-.902 1.524-1.02 2.988-.363 4.14.672 1.173 2.035 1.821 3.863 1.821h7.239a.639.639 0 0 0 .453-1.094.635.635 0 0 0-.453-.187H4.28c-1.347 0-2.328-.426-2.761-1.18-.418-.734-.293-1.75.359-2.86l3.219-5.46 2.8 1.68a.619.619 0 0 0 .641.023.65.65 0 0 0 .32-.562v-7.68a.649.649 0 0 0-.64-.64M27.8 17.28a.59.59 0 0 0-.242.078.636.636 0 0 0-.297.391.645.645 0 0 0 .074.488l2.785 4.602c.652 1.11.781 2.125.36 2.86-.434.757-1.415 1.179-2.762 1.179h-5.957v-3.2a.641.641 0 0 0-.32-.558.637.637 0 0 0-.641.02l-6.403 3.84a.631.631 0 0 0-.32.539c0 .226.129.425.32.539l6.403 3.84c.14.093.316.124.48.081.051-.015.11-.03.16-.058a.64.64 0 0 0 .317-.563V28.16h5.96c1.829 0 3.212-.648 3.884-1.82.656-1.152.52-2.633-.383-4.16l-2.778-4.598a.633.633 0 0 0-.64-.3"/></svg>
